X:1
T:Tabhair dom do Lamh  "'Give Me Your Hand' at 104 bpm "
M:3/4
L:1/8
Q:80
C:arr. Kent Hiestand
S:Air
K:HP
A2 | \
{g}B2d2{c}d2 | \
{Gdc}d4A2 | \
{g}B2d2{c}d2 |
{Gdc}d4A2 | \
{g}B2d2{c}d2 | \
{g}d2e2f2 |
{e}f2a2{g}a2 | \
{gfg}f4ed | \
e2{A}e2a{g}a |
f2{e}f2af | \
{gef}e3f{g}ed | \
{gBd}B4{G}A2 |
{g}B2d2{c}d2 | \
{Gdc}d4A2 | \
{g}B2d2{c}d2 |
{Gdc}d4A2 | \
{g}B2d2{c}d2 | \
{g}d2e2f2 |
{GAG}A3fef | \
{Gdc}d4A2 | \
{g}B2d2{c}d2 |
{g}d2e2f2 | \
{e}f2a2{g}a2 | \
{gfg}f4{g}AG |
A2{d}A2ed | \
B2{G}B2dB | \
{GAG}A3Bcd |
{gef}e4dB | \
{G}A2{d}A2B2 | \
{Gdc}d3BA2 |
B2{G}B2d2 | \
{gef}e4dB | \
d2{c}d2{g}AB |
d2{c}d2{g}AB | \
d2{c}d2e2 | \
{gef}f4de |
f2{g}f2{e}f2 | \
{gfg}f4ed | \
{g}e2{A}ed{g}ef |
{gef}e4dc | \
B2{G}B2dB | \
A2{d}A2fe |
{g}c2{A}c2ec | \
{gBd}B4cB | \
{G}A2c2e2 |
{gf}g4fe | \
f2{e}f2a2 | \
{gfg}f4ec |
e2{A}e2fe | \
c2{A}c2ec | \
{gBd}B3dcB |
{AGAG}A4 :|
